!!!OTL: Haoyangge
!!!ARE: Asia, China,ÿHenan Shangcheng
!! IV, 113
!!!SCT: C1936
!!!YEM: Copyright 1995, estate of Helmut Schaffrath.
**kern
*ICvox
*Ivox
*M2/4
*k[f#]
*G:
{8dd
16gg
16ee
16dd
16b
8a
=1
8dd
16gg
16ee
16dd
16b
8a
=2
16dd
16e
4g
8a
=3
16dd
16b
4a
8g}
=4
{16dd
16e
4g
8a
=5
16dd
16b
4a
16g
16ee}
=6
{16b
16dd
16a
16b
8dd
16b
16a
=7
16g
16e
4.g
=8
16b
16dd
16a
16b
8dd
16b
16a
=9
16g
16e
4.g}
=10
{8.b
16dd
8a
8b
=11
8ee
16dd
16b
8a
16g
16e
=12
16e
8a
16b
8a
16g
16e
=13
16g
16e
4.d}
=14
{16dd
16e
4g
8a
=15
16dd
16b
4a
16g
16e
=16
16e
8a
16b
8a
16g
16e
=17
16g
16e
4.d}
==
!!!AGN: Xiaodiao, Dayingtao
!!!AMT: simple duple
!!!AIN: vox
!!!EED: Helmut Schaffrath
!!!EEV: 1.0
*-
